X: 36378
T: Seán Parnell's
R: reel
M: 4/4
K: Gmajor
Bc|:dG(3GGG dGBG|G2Bd egfa|gG(3GGG dGBd|1 egdB AABc:|2 egdB A^GAf||
g2dg bgag|fade fgaf|g2dg bgag|egdB A^GAf|
g2dg bgag|fade fgag|bagf gfe^d|efge dfge|

